X: 1
T: Gort Na Mona
M: 9/8
L: 1/8
R: slip jig
K: Gmaj
G2B BAG ABc|d2g gfd BcA|G2B BAG ABc|1ded ded ((3BcB) A:|2ded dge fga||
b2a bge dgb|a2a aga bge|e2e edB ABc|d2d dge fga|
b2g gba ged|e2e ede ged|A2A ABG ABc|d2d dgf dcA||
